!!!!SEGMENT: pl-kozmzk--mzk-m-135_cwiklicz-boleslaw-jan-to-sen-byl-tylko.krn
!!!cenid: 18xx:2954
!!!COM: Ćwiklicz, Bolesław Jan
!!!COM-rism: pe41023611
!!!CDT: ~1800-~1899
!!!CNT: Polish
!!!OTL: To sen był tylko
!!!PDT:
!!!AGN:
!!!SMS-siglum: PL-KOZmzk
!!!SMS-shelfmark: mzk/m/135
!!!NIFC-rismID: 1001083580
!!!URL-scan: https://repozytorium.nifc.pl/islandora/object/pl-kozmzk%3A1722/datastream/PDF/view
!!!ONB-nifc:
!!!SMS-variant:
!!!SMS-altvar:
**kern	**dynam	**kern	**dynam	**kern	**text	**dynam
*part3	*part3	*part2	*part2	*part1	*part1	*part1
*staff3	*	*staff2	*	*staff1	*staff1	*
*I"Pianoforte	*	*I"Fortepian	*	*I"Głos	*	*
*	*	*I'pf	*	*I'voce umana	*	*
*clefF4	*	*clefG2	*	*clefG2	*	*
*k[]	*	*k[]	*	*k[]	*	*
*M4/4	*	*M4/4	*	*M4/4	*	*
*met(c)	*	*met(c)	*	*met(c)	*	*
=1	=1	=1	=1	=1	=1	=1
!	!	!LO:TX:a:i:t=Spokojnie	!LO:DY:rj	!	!	!
(4AA/ 4AAA/	.	(>4e/ 4c/ 4A'>/	p <	1ryy	.	.
8.BB/L 8.BBB/	.	8.e/L 8.B/ 8.G#X'/	.	.	.	.
16C/Jk 16CC/	.	16e/Jk 16A'>/	.	.	.	.
4D/ 4DD/	.	4f/ 4d/ 4A'>/	.	.	.	.
4E/ 4EE/)	.	4e/ 4B/ 4G#'>/)	[[	.	.	.
=2	=2	=2	=2	=2	=2	=2
(4F/ 4FF/	.	(>4d/ 4A'>/	>	1ryy	.	.
8.E/L 8.EE/	.	8.c/L 8.A'>/	.	.	.	.
16D/Jk 16DD/	.	16d/Jk 16A/ 16F'>/)	.	.	.	.
4C/ 4CC/	.	2e/ 2G#X/ 2E~>/	]]	.	.	.
4BB/ 4BBB/)	.	.	.	.	.	.
=3	=3	=3	=3	=3	=3	=3
(4AA/ 4AAA/	.	(>4e/ 4c/ 4A/ 4E'>/	<	1ryy	.	.
8.BB/L 8.BBB/	.	8.e/L 8.B/ 8.G#X'/	.	.	.	.
16C/Jk 16CC/	.	16e/Jk 16A'>/	.	.	.	.
4D/ 4DD/	.	4f/ 4d/ 4A'>/	.	.	.	.
4E/ 4EE/)	.	4e/ 4c/ 4A'>/)	[[	.	.	.
=4	=4	=4	=4	=4	=4	=4
(4F/ 4FF/	.	2d/ 2A~>/	.	1ryy	.	.
8Gn/L 8GGn/	.	.	.	.	.	.
8F/J 8FF/	.	.	.	.	.	.
2E/ 2EE/)	.	2e/ 2B/ 2G#X~>/	.	.	.	.
!!LO:LB:g=original
=5	=5	=5	=5	=5	=5	=5
!	!	!LO:TX:a:i:t=Spokojnie	!	!	!	!LO:DY:a
4E\ 4AA\	.	(>4e/ 4c/ 4A'>/	pp <	4e/	Zmie-	p
8.E\L 8.BB\	.	8.e/L 8.B/ 8.G#X'>/	.	8.e/L	-rzchy	.
16E\Jk 16C\	.	16e/Jk 16A'>/	.	16e/Jk	li-	.
4F\ 4D\	.	4d/ 4A'>/	[ >	4f/	-lio-	.
4E\ 4AA\	.	4c/ 4A'>/)	]]	4e/	-we,	.
=6	=6	=6	=6	=6	=6	=6
(4F\ 4FF\	.	(>4c/ 4A'>/	<	8a/L	po-	.
.	.	.	.	8b/J	-że-	.
8.E\L 8.EE\	.	8.e/L 8.G#X'>/	.	8.cc/L	-gna-	.
16D\Jk 16DD\	.	16f/Jk 16A'>/	.	16b/Jk	-nia	.
4C/ 4CC/	.	4e/ 4A'>/	[ >	4a/	sło-	.
4E/ 4EE/)	.	4e/ 4B'>/)	]]	4g#X/	-wa	.
=7	=7	=7	=7	=7	=7	=7
*	*	*^	*	*	*	*
(4C/ 4CC/	.	(>8a/L	4e\ 4A\	??? >	4a/	Szmer	.
.	.	8g/J)	.	.	.	.	.
4D/ 4DD/	.	(>4f/ 4d/ 4A'>/	2.ryy	.	8d/L	po-	.
.	.	.	.	.	8e/J	-ca-	.
4BB/ 4BBB/	.	4g/ 4d/ 4G'>/	.	.	4gn/	-łu-	.
4C/ 4CC/	.	4g/ 4c/ 4G'>/)	.	.	8f/L	-nków,	.
.	.	.	.	.	8e/J	go-	.
*	*	*v	*v	*	*	*	*
=8	=8	=8	=8	=8	=8	=8
4D/ 4DD/	.	(>4e/ 4B/ 4G#X'>/	] <	4g#X/	-rą-	.
4C/ 4CC/	.	4e/ 4A'>/	.	8a/L	-ca	.
.	.	.	.	8b/J	pie-	.
4D/ 4DD/	.	4f/ 4d/ 4A'>/	.	4dd/	-szczo-	.
4E/ 4EE/)	.	4e/ 4c/ 4A'>/)	[[	8cc/L	-ta...	.
.	.	.	.	8ee/J	I	.
!!LO:PB:g=original
=9	=9	=9	=9	=9	=9	=9
!	!	!LO:N:vis=4.	!	!	!	!
4..D/ 4..DD/	.	4..f/ 4..d/ 4..A/	<	8ff\L	tuż	.
.	.	.	.	8gg\J	przy	.
.	.	.	.	(4aa\	se-	.
16D/ 16DD/	.	16f/ 16d/ 16A/	.	.	.	.
2D/ 2DD/	.	2f/ 2d/ 2A/	[ f	8gg\L)	.	.
.	.	.	.	8ff\	-rcu	.
.	.	.	.	8ee\	u-	.
.	.	.	.	8dd\J	-ko-	.
=10	=10	=10	=10	=10	=10	=10
*	*	*^	*	*	*	*
8.BB/L 8.BBB/	.	8.g/L 8.d/ 8.G/	2.ryy	>	4.gg\	-cha-	.
16BB/Jk 16BBB/	.	16g/Jk 16d/ 16G/	.	.	.	.	.
4BB/ 4BBB/	.	4g/ 4d/ 4G/	.	.	.	.	.
.	.	.	.	.	8ff\	-na	.
4C/ 4CC/	.	4e/ 4c/ 4G/	.	.	4ee\	gło-	.
4F/ 4FF/	.	8c/L	4A\	.	8a/L	-wa,	.
.	.	8d/J	.	.	8b/J	A	.
*	*	*v	*v	*	*	*	*
=11	=11	=11	=11	=11	=11	=11
4E/ 4EE/	.	4e/ 4c#X/ 4A/	.	8cc#X\L	w du-	.
.	.	.	.	8dd\J	-szy	.
4r	.	4r	.	8ff#X\L	i-	.
.	.	.	.	8ffn\J	-skra	.
!	!	!	!	!LO:TX:t=P:problem:mixed beam	!	!
4E/ 4EE/	.	4e/ 4B/ 4G#X/	.	8ee\L	szczę-	.
.	.	.	.	8g#X/J	-ścia	.
4r	.	4r	]	8a/L	szcze-	.
.	.	.	.	8cc#/J	-ro-	.
=12	=12	=12	=12	=12	=12	=12
*	*	*^	*	*	*	*
4r	.	4r	2.ryy	p	2b/	-zło-	.
8.E\L 8.EE\	.	8.e/L 8.d/ 8.G/	.	>	.	.	.
16E\Jk 16EE\	.	16e/Jk 16d/ 16G/	.	.	.	.	.
4E\ 4AA\	.	4e/ 4c#X/ 4A/	.	.	4a/	-ta...	.
!	!LO:DY:a	!	!	!	!	!	!
(<4D\: 4AA\: 4AAA:\	sfz	(8.fn:/L	4B\: 4G:\	]	4r	.	.
!	!	!LO:TX:b:i:t=zwa-	!	!	!	!	!
.	.	16e/Jk)	.	.	.	.	.
!!LO:LB:g=original
=13	=13	=13	=13	=13	=13	=13	=13
!	!	!LO:TX:b:i:t=lnia	!	!	!	!	!
4E\ 4AA\)	.	4e/ 4c#X/ 4A/	4ryy	p	1r	.	.
(<4D\: 4AA\: 4AAA:\	.	(8.f:/L	4B\: 4G#X:\	sfz	.	.	.
.	.	16e/Jk)	.	.	.	.	.
4E\ 4AA\)	.	4e/ 4c#/ 4A/	4ryy	p	.	.	.
(<4D/: 4AA/: 4AAA:/	.	(8.f:/L	4B\: 4G#:\	sfz	.	.	.
.	.	16e/Jk)	.	.	.	.	.
*	*	*v	*v	*	*	*	*
=14	=14	=14	=14	=14	=14	=14
!	!	!LO:TX:b:i:t=jąc	!	!	!	!
(<4E\ 4AA\)	.	4e/ 4c#X/ 4A/	.	1r	.	.
!	!	!LO:TX:b:i:t=przy	!	!	!	!
8.E\L 8.BB\	.	(>8.e/L 8.B/ 8.G#X'>/	.	.	.	.
16E\Jk 16C#X\	.	16e/Jk 16A'/	.	.	.	.
4D\	.	4fn/ 4d/ 4A'/	.	.	.	.
!	!	!LO:TX:b:i:t=spie	!	!	!	!
4E\	.	4e/ 4c#/ 4A'>/)	>	.	.	.
=15	=15	=15	=15	=15	=15	=15
!	!	!LO:TX:b:i:t=sza	!	!	!	!
4Fn\	.	(>4d/ 4B/ 4A'>/	.	1r	.	.
!	!	!LO:TX:b:i:t=jąc	!	!	!	!
8.E\L	.	8.e/L 8.B/ 8.G#X'>/	.	.	.	.
16D\Jk)	.	16f/Jk 16B/ 16A'>/)	.	.	.	.
4E\ 4AA;<\	.	4e/ 4c#X/ 4A;/	.	.	.	.
4r	.	4r	]	.	.	.
=16||	=16||	=16||	=16||	=16||	=16||	=16||
!	!	!LO:TX:b:i:t=jak poprzednio	!	!	!	!
4F\ 4FF\	.	4f/ 4cn/ 4A/	mf	8r	.	.
!	!	!	!	!	!	!LO:DY:a
.	.	.	.	8a/L	To	mf
4r	.	4r	.	8cc/	sen	.
.	.	.	.	8a/	był	.
4r	.	4r	.	8g/	ty-	.
.	.	.	.	8f/J	-lko!	.
4F\ 4FF\	.	4a/ 4f/ 4c/	.	4r	.	.
!!LO:LB:g=original
=17	=17	=17	=17	=17	=17	=17
!	!	!LO:TX:b:i:t=jak miedź	!	!	!	!
2B-X\ 2BB-X\	.	2b-X/ 2f/ 2d/	f >	4dd\	Sen	.
.	.	.	.	8cc\L	ja-	.
.	.	.	.	16b-X\L	-Kiś	.
.	.	.	.	16a\JJ	świe-	.
2F\ 2FF\	.	2a/ 2f/ 2c/	]]	4cc\	-tli-	.
.	.	.	.	4f/	-sty...	.
=18	=18	=18	=18	=18	=18	=18
2E\ 2EE\	.	2a/ 2g/ 2c#X/	<	8a/L	Sen,	.
.	.	.	.	16e/L	co	.
.	.	.	.	16f/JJ	mię	.
.	.	.	.	8g/L	bla-	.
.	.	.	.	8g/J	-ski	.
2D/ 2DD/	.	4a/ 4f/ 4d/	.	8a/L	swy-	.
.	.	.	.	8g/J	-mi	.
.	.	4dd/ 4a/ 4f/	[[	8f/L	o-	.
.	.	.	.	8c#X/J	-lśnił	.
=19	=19	=19	=19	=19	=19	=19
(4AA/ 4AAA/	.	(4ee\ 4cc#X\ 4g\	>	4e/	zło-	.
4BB-X/ 4BBB-X/)	.	4dd\ 4f\)	.	4d/	-ty!	.
(4AA/ 4AAA/	.	(4cc#\ 4a\ 4e-X\	.	4r	.	.
4BB-/ 4BBB-/)	.	4b-X\ 4d\)	]]	4r	.	.
!!LO:LB:g=original
=20	=20	=20	=20	=20	=20	=20
!	!	!LO:TX:b:i:t=ponuro	!	!	!	!
(4FF\	.	(>4c</ 4A</ 4F<'>/	p	1r	.	.
8.GGn\L	.	8.c</L 8.G</ 8.E<'>/	.	.	.	.
16AA\Jk	.	16c</Jk 16F<'>/	.	.	.	.
4BB\	.	4d</ 4B-X</ 4F<'>/	.	.	.	.
4C\)	.	4c</ 4A</ 4F<'>/)	.	.	.	.
=21	=21	=21	=21	=21	=21	=21
(4D\	.	(>4Bn</ 4A-X</ 4F<'>/	<	1r	.	.
8.C\L	.	8.c</L 8.A-</ 8.F<'>/	.	.	.	.
16BBn\Jk)	.	16d</Jk 16A-</ 16F<'>/)	.	.	.	.
(4C\	.	(4e</ 4c</ 4G<~>/	[ >	.	.	.
4E\)	.	4c</ 4G</)	]]	.	.	.
=22	=22	=22	=22	=22	=22	=22
(4FF\	.	(>4c</ 4A-X</ 4F<>'>/	pp	1r	.	.
8.GG\L	.	8.c</L 8.G</ 8.E<'/	.	.	.	.
16AA\Jk	.	16c</Jk 16F<'>/	.	.	.	.
4BB-X\	.	4d-X</ 4B</ 4F<'>/	.	.	.	.
4C\)	.	4c</ 4A-</ 4F<'>/)	.	.	.	.
=23	=23	=23	=23	=23	=23	=23
4Dn\	.	(>4Bn</ 4A-X</ 4F<'>/	<	1r	.	.
8.C\L	.	8.c</L 8.A-</ 8.F<'>/	.	.	.	.
16BBn\Jk	.	16dn</Jk 16A-</ 16F<'>/)	.	.	.	.
2C\	.	2e</ 2c</ 2G<~>/	[[	.	.	.
=24	=24	=24	=24	=24	=24	=24
2G\ 2GG\	.	2g/ 2d/ 2Bn/	p >	8r	.	<
!	!	!	!	!	!	!LO:DY:a
.	.	.	.	8d/	U-	p
.	.	.	.	2g/	-le-	[ >
2r	.	2r	]	.	.	.
.	.	.	.	4f/	-ciał!	]]
!!LO:PB:g=original
=25	=25	=25	=25	=25	=25	=25
4C/	.	4r	p <	1r	.	.
4e-X\ 4c\ 4G\	.	(8ccc\L	.	.	.	.
.	.	8ddd\J	.	.	.	.
4FF/	.	8eee-X\L	.	.	.	.
.	.	8ddd\J	[ >	.	.	.
4f\ 4c\ 4A-X\	.	8ccc\L	.	.	.	.
.	.	8aa-X\J	.	.	.	.
=26	=26	=26	=26	=26	=26	=26
4GG/	.	8gg\L	.	1r	.	.
.	.	8ee-X\J	.	.	.	.
4e-X\ 4c\ 4G\	.	8cc\L	.	.	.	.
.	.	8bn\J	.	.	.	.
4GG/	.	4a-X/	.	.	.	.
4f\ 4Bn\ 4G\	.	4g/)	]]	.	.	.
=27	=27	=27	=27	=27	=27	=27
*^	*	*	*	*	*	*
(8C/L	4ryy	.	4r	pp <	1r	.	.
8D/J)	.	.	.	.	.	.	.
(8e-X/L	4c\ 4G\	.	(8ccc\L	.	.	.	.
8f/J)	.	.	8ddd\J	.	.	.	.
4FF/	4ryy	.	8eee-X\L	.	.	.	.
.	.	.	8ddd\J	[ >	.	.	.
(8a/L	4c\ 4A-X\	.	8ccc\L	.	.	.	.
8f/J)	.	.	8aa-X\J	.	.	.	.
=28	=28	=28	=28	=28	=28	=28	=28
4GG/	4ryy	.	8gg\L	.	1r	.	.
.	.	.	8ee-X\J	.	.	.	.
(8e-X/L	4c\ 4G\	.	8cc\L	.	.	.	.
8g/J)	.	.	8bn\J	.	.	.	.
4FF/	4ryy	.	4a-X/	.	.	.	.
(8a/L	4Bn\ 4G\	.	4g/)	]]	.	.	.
8f/J)	.	.	.	.	.	.	.
*v	*v	*	*	*	*	*	*
!!LO:LB:g=original
=29	=29	=29	=29	=29	=29	=29
(4C/ 4CC/	.	4g/ 4e-X/ 4c/	p <	1r	.	.
8.D/L 8.DD/	.	8.g/L 8.d/ 8.Bn/	.	.	.	.
16E-X/Jk 16EE-X/	.	16g/Jk 16c/	.	.	.	.
4F/ 4FF/	.	4a-X/ 4f/ 4c/	[	.	.	.
4G/ 4GG/)	.	4g/ 4d/ 4B/	.	.	.	.
=30	=30	=30	=30	=30	=30	=30
!	!	!LO:TX:b:i:t=zwalniając	!	!	!	!
(4A-X\ 4AA-X\	.	4f/ 4c/	.	4r	.	.
!	!	!	!	!LO:TX:a:i:t=zwalniając	!	!LO:DY:a
8.G\L 8.GG\	.	8.e-X/L 8.c/	.	8.e-X/L	Zo-	p <
16F\Jk 16FF\)	.	16f/Jk 16c/ 16A-X/	.	16f/Jk	-stał	.
(4E-X\ (4EE-X~\	.	2g/ 2Bn/ 2G/	>]	4g/	smu-	.
4D\ 4DD\))	.	.	.	4g/	-tek	.
=31	=31	=31	=31	=31	=31	=31
!	!	!LO:TX:b:i:t=nieco	!	!LO:TX:a:i:t=nieco	!	!
(4C/ 4CC/	.	4g/ 4e-X/ 4c/ 4G/	<	4.g/	wie-	.
8.D/L 8.DD/	.	8.g/L 8.d/ 8.Bn/	.	.	.	.
.	.	.	.	8g/	-ku-	.
16E-X/Jk 16EE-X/	.	16g/Jk 16c/	.	.	.	.
4F/ 4FF/	.	4a-X/ 4f/ 4c/	.	4cc/	-i-	.
4G/ 4GG/)	.	4g/ 4e-/ 4c/	[	4cc/	-sty...	[[
!!LO:LB:g=original
=32	=32	=32	=32	=32	=32	=32
(<4A-X\ 4AA-X\	.	2f/ 2c/	<	1r	.	.
8B-X\L 8BB-X\	.	.	.	.	.	.
8A-\J 8AA-\	.	.	.	.	.	.
4G\ 4GG\	.	2g/ 2d/ 2Bn/	[[	.	.	.
4F\ 4FF\)	.	.	.	.	.	.
=33	=33	=33	=33	=33	=33	=33
!	!	!LO:TX:b:i:t=Jak poprzednio	!	!LO:TX:a:i:t=Jak poprzednio	!	!
4E\ 4EE\	.	4g#X/ 4e/ 4B/	.	8r	.	.
.	.	.	.	8g#X/	Pra-	.
4r	.	4r	.	8b/L	-gnie-	.
.	.	.	.	8g#/J	-nie	.
4D/ 4DD/	.	4g#/ 4e/ 4B/	f <	8f#X/L	szczę-	.
.	.	.	.	8e/J	-ścia...	.
4C#X/ 4CC#X/	.	4a/ 4e/ 4A/	.	4r	.	.
=34	=34	=34	=34	=34	=34	=34
*tremolo	*	*tremolo	*	*	*	*
!	!	!LO:TX:b:i:t=wolniej	!	!LO:TX:a:i:t=wolniej	!	!LO:DY:a
(32DD/LLL	.	(32f/LLL 32d/ ((<32B/	.	(8fn/L	Wspo-	p
32D/	.	32A/	.	.	.	.
32DD/	.	32f/ 32d/ 32B/	.	.	.	.
32D/	.	32A/	.	.	.	.
32DD/	.	32f/ 32d/ 32B/	.	8g/J)	.	.
32D/	.	32A/	.	.	.	.
32DD/	.	32f/ 32d/ 32B/	.	.	.	.
32D/	.	32A/	.	.	.	.
32DD/	.	32f/ 32d/ 32B/	.	4a/	-mnie-	.
32D/	.	32A/	.	.	.	.
32DD/	.	32f/ 32d/ 32B/	.	.	.	.
32D/	.	32A/	.	.	.	.
32DD/	.	32f/ 32d/ 32B/	.	.	.	.
32D/	.	32A/	.	.	.	.
32DD/	.	32f/ 32d/ 32B/	.	.	.	.
32D/JJJ)	.	32A/JJJ)))	.	.	.	.
(32DD/LLL	.	(32f/LLL 32d/ ((<32B/	[ >	4.g/	-nie	.
32D/	.	32A/	.	.	.	.
32DD/	.	32f/ 32d/ 32B/	.	.	.	.
32D/	.	32A/	.	.	.	.
32DD/	.	32f/ 32d/ 32B/	.	.	.	.
32D/	.	32A/	.	.	.	.
32DD/	.	32f/ 32d/ 32B/	.	.	.	.
32D/	.	32A/	.	.	.	.
32DD/	.	32f/ 32d/ 32B/	.	.	.	.
32D/	.	32A/	.	.	.	.
32DD/	.	32f/ 32d/ 32B/	.	.	.	.
32D/	.	32A/	.	.	.	.
32DD/	.	32f/ 32d/ 32B/	.	8f/	pie-	.
32D/	.	32A/	.	.	.	.
32DD/	.	32f/ 32d/ 32B/	.	.	.	.
32D/JJJ)	.	32A/JJJ)))	]]	.	.	.
!!LO:LB:g=original
=35	=35	=35	=35	=35	=35	=35
!	!	!LO:TX:b:i:t=Jak poprzednio	!	!	!	!
1r	.	(4e/ 4c#X/ 4A'/	p <	4e/	-szczo-	.
.	.	8.e/L 8.B/ 8.G#X'/	.	8e/	-ty...	.
.	.	.	.	8r	.	.
.	.	16e/Jk 16A'/	.	.	.	.
.	.	4f/ 4d/ 4A'/	.	2r	.	.
.	.	4e/ 4c#/ 4A'/)	[	.	.	.
=36	=36	=36	=36	=36	=36	=36
*	*	*^	*	*	*	*
(4D/: 4AA/: 4AAA:/	.	(8.f:/L	4B\: 4G#X:\	sfz >	1r;	.	.
.	.	16e/Jk)	.	.	.	.	.
4E\ 4AA\)	.	4e/ 4c#X/ 4A/	4ryy	p	.	.	.
(4D/: 4AA/: 4AAA:/	.	(8.f:/L	4B\: 4G#:\	sfz	.	.	.
.	.	16e/Jk)	.	.	.	.	.
4E\ 4AA;<\)	.	4e/ 4c#/ 4A;/	4ryy	p	.	.	.
*	*	*v	*v	*	*	*	*
==	==	==	==	==	==	==
*-	*-	*-	*-	*-	*-	*-
!!!system-decoration: s1[(s2,s3)]
!!!RDF**kern: > = above
!!!RDF**kern: < = below
!!!ENC: Tomasz Grochalski
!!!END: 2021-08-10
!!!ENC: Leszek Kubiak
!!!END: 2021-09-08
